X: 28560
T: Murmuring Tide, The
R: waltz
M: 3/4
K: Adorian
AB c3 A|BG d4|AB c3 d|B2 G4|AB c3 A|BG d4|e2 A4|G2 A4|
AB c3 A|Bc d4|AB c3 d|B2 G4|AB c3 A|BG d4|e2 A4|G2 A4|:
ef g3e|ag e3 d|c2 g3 c|BA G4|AB c3 A|Bc d4|e2 A4|G2 A4:|

